X:96
%%vocalfont Baskerville10Pro 11
%%pagewidth 8in
T:Drive the cold winter away
M:6/8
L:1/8
K:Eb
%%score 1 2
V:1 clef-treble
V:2 clef-bass octave=-1
V:1
C|E>DC[CG]2[Ec]|[EB]>A[EG][Ee]2[DE]|F2G A>BA&C3C3|[=B,G]3-[B,G]2 C|
w:All hail to the days that me-rit more praise Than all the rest of the year,* And
V:2
[CE]|[CG]3E2A|G2Ec2B|A3F3|G3G,2[CE]
V:1
E>DC[CG]2[Ec]|[EB]>A[EG][Ee]2[DE]|[CF]2G [CA]>BA|[=B,G]3[B,G]2||
w:wel-come the nights that dou-ble de-lights, As well~for the poor as the peer!*
V:2
[CG]3E2A|G2Ec2B|A3F3|G3G,2||
V:1
[CEc]|[EB]>GEB2[Cc]|[CA]>GFA2[B,FB]|[B,EG]>[DF][CE][=B,D]2C|[Ee]3-[Ee]>(d[Fc])|
w:Good for-tune at-tend each mer-ry man's friend, That doth but the best that~he may;* For*
V:2
A|!p![EG]3-[EG]2[EG]|[FA]3-[FA]2[DF]|[EG]2FG2A|[CGc]>=Bc[CA]2[DA]|
V:1
[GB]>GE[FB]2[=Ec]|[FA]>GF[FA]2[DFB]|[EG]>FE [=B,D]>CD|C3-C2||
w:get-ting old wrongs, with ca-rols and songs, To drive the cold win-ter a-way.*
V:2
[EG]3[_DB]2[CG]|[FA]3[=DB]2B,|E2CG2G,|C3C,2||

